web/app/themes/ilsfa/assets/svgs/icon-hamburger.svg

<svg xmlns="http://www.w3.org/2000/svg" width="54" height="50" viewBox="0 0 54 50">
  <defs>
    <filter id="icon-hamburger-a" width="121.9%" height="197.2%" x="-10.9%" y="-48.6%" filterUnits="objectBoundingBox">
      <feOffset dy="2" in="SourceAlpha" result="shadowOffsetOuter1"/>
      <feGaussianBlur in="shadowOffsetOuter1" result="shadowBlurOuter1" stdDeviation="8"/>
      <feColorMatrix in="shadowBlurOuter1" result="shadowMatrixOuter1" values="0 0 0 0 0   0 0 0 0 0   0 0 0 0 0  0 0 0 0.5 0"/>
      <feMerge>
        <feMergeNode in="shadowMatrixOuter1"/>
        <feMergeNode in="SourceGraphic"/>
      </feMerge>
    </filter>
  </defs>
  <path fill="#FACE0C" d="M24,20 C24,19.447 23.553,19 23,19 L1,19 C0.447,19 0,19.447 0,20 C0,20.553 0.447,21 1,21 L23,21 C23.553,21 24,20.553 24,20 M24,12 C24,11.447 23.553,11 23,11 L1,11 C0.447,11 0,11.447 0,12 C0,12.553 0.447,13 1,13 L23,13 C23.553,13 24,12.553 24,12 M23,5 L1,5 C0.447,5 0,4.553 0,4 C0,3.447 0.447,3 1,3 L23,3 C23.553,3 24,3.447 24,4 C24,4.553 23.553,5 23,5" filter="url(#icon-hamburger-a)" transform="translate(15 11)"/>
</svg>

<svg xmlns="http://www.w3.org/2000/svg" width="54" height="50" viewBox="0 0 54 50"><defs><filter id="icon-hamburger-a" width="121.9%" height="197.2%" x="-10.9%" y="-48.6%" filterUnits="objectBoundingBox"><feOffset dy="2" in="SourceAlpha" result="shadowOffsetOuter1"/><feGaussianBlur in="shadowOffsetOuter1" result="shadowBlurOuter1" stdDeviation="8"/><feColorMatrix in="shadowBlurOuter1" result="shadowMatrixOuter1" values="0 0 0 0 0 0 0 0 0 0 0 0 0 0 0 0 0 0 0.5 0"/><feMerge><feMergeNode in="shadowMatrixOuter1"/><feMergeNode in="SourceGraphic"/></feMerge></filter></defs><path fill="#FACE0C" d="M24 20a1 1 0 0 0-1-1H1a1 1 0 1 0 0 2h22a1 1 0 0 0 1-1m0-8a1 1 0 0 0-1-1H1a1 1 0 1 0 0 2h22a1 1 0 0 0 1-1m-1-7H1a1 1 0 1 1 0-2h22a1 1 0 1 1 0 2" filter="url(#icon-hamburger-a)" transform="translate(15 11)"/></svg>
